Numix/48/mimetypes/application-vnd.tcpdump.pcap.svg

<?xml version="1.0" encoding="UTF-8" standalone="no"?>
<svg
   xmlns:dc="http://purl.org/dc/elements/1.1/"
   xmlns:cc="http://creativecommons.org/ns#"
   xmlns:rdf="http://www.w3.org/1999/02/22-rdf-syntax-ns#"
   xmlns:svg="http://www.w3.org/2000/svg"
   xmlns="http://www.w3.org/2000/svg"
   xmlns:sodipodi="http://sodipodi.sourceforge.net/DTD/sodipodi-0.dtd"
   xmlns:inkscape="http://www.inkscape.org/namespaces/inkscape"
   width="48"
   viewBox="0 0 48 48"
   height="48"
   id="svg2"
   version="1.1"
   inkscape:version="0.91 r13725"
   sodipodi:docname="application-vnd.tcpdump.pcap.svg">
  <metadata
     id="metadata16">
    <rdf:RDF>
      <cc:Work
         rdf:about="">
        <dc:format>image/svg+xml</dc:format>
        <dc:type
           rdf:resource="http://purl.org/dc/dcmitype/StillImage" />
        <dc:title />
      </cc:Work>
    </rdf:RDF>
  </metadata>
  <defs
     id="defs14">
    <clipPath
       id="clipPath-258929573">
      <g
         transform="translate(0,-1004.3622)"
         id="g17">
        <path
           inkscape:connector-curvature="0"
           d="m -24,13 c 0,1.105 -0.672,2 -1.5,2 -0.828,0 -1.5,-0.895 -1.5,-2 0,-1.105 0.672,-2 1.5,-2 0.828,0 1.5,0.895 1.5,2 z"
           transform="matrix(15.333333,0,0,11.5,414.99999,878.8622)"
           style="fill:#1890d0"
           id="path19" />
      </g>
    </clipPath>
  </defs>
  <sodipodi:namedview
     pagecolor="#ffffff"
     bordercolor="#666666"
     borderopacity="1"
     objecttolerance="10"
     gridtolerance="10"
     guidetolerance="10"
     inkscape:pageopacity="0"
     inkscape:pageshadow="2"
     inkscape:window-width="1920"
     inkscape:window-height="1013"
     id="namedview12"
     showgrid="true"
     inkscape:zoom="8.4852814"
     inkscape:cx="-19.738943"
     inkscape:cy="8.4076013"
     inkscape:window-x="0"
     inkscape:window-y="27"
     inkscape:window-maximized="1"
     inkscape:current-layer="svg2">
    <inkscape:grid
       type="xygrid"
       id="grid4171" />
  </sodipodi:namedview>
  <path
     style="fill:#af5b63;fill-opacity:1"
     d="M 8,1 C 6.9714285,1 6,1.9714285 6,3 l 0,42 c 0,0.971429 1.0285714,2 2,2 l 32,0 c 0.971429,0 2,-1.028571 2,-2 L 42,14 29,1 z"
     id="path4" />
  <path
     style="fill-opacity:.196"
     d="M 29,12 29.0625,12.0625 29.21875,12 29,12 z m 2,2 11,11 0,-11 -11,0 z"
     id="path6" />
  <path
     style="fill:#fff;fill-opacity:.392"
     d="m 29,1 13,13 -11,0 c -0.971429,0 -2,-1.028571 -2,-2 L 29,1 z"
     id="path8" />
  <g
     id="g4239"
     style="fill:#f9f9f9"
     transform="translate(1.0000001,0)">
    <g
       transform="translate(8,6)"
       id="g4199"
       style="fill:#f9f9f9" />
    <g
       id="g4199-4"
       transform="translate(20,8)"
       style="fill:#f9f9f9">
      <g
         id="g4235"
         style="fill:#f9f9f9" />
    </g>
    <g
       id="g4199-8"
       transform="translate(7,10)"
       style="fill:#f9f9f9" />
    <g
       id="g4199-4-3"
       transform="translate(17,12)"
       style="fill:#f9f9f9">
      <g
         id="g4235-3"
         style="fill:#f9f9f9" />
    </g>
  </g>
  <g
     transform="matrix(0.06796816,0,0,0.06816293,13.782682,16.192447)"
     id="g13"
     style="fill:#f9f9f9;stroke:none;stroke-width:10.28421497;stroke-miterlimit:4;stroke-dasharray:none;stroke-opacity:1">
    <title
       id="title15">Layer 1</title>
    <path
       style="fill:#f9f9f9;stroke:none;stroke-width:10.28421497;stroke-miterlimit:4;stroke-dasharray:none;stroke-opacity:1"
       d="M 21.490234 17 C 19.571097 17.002934 17.656123 17.740053 16.197266 19.203125 C 13.269867 22.138845 13.263891 26.849213 16.205078 29.798828 C 18.696994 32.297887 22.451937 32.662846 25.355469 30.925781 L 29.988281 35.533203 C 30.702422 36.228329 31.893239 36.095042 32.511719 35.476562 C 33.169011 34.787705 33.173998 33.604163 32.460938 32.910156 L 27.882812 28.427734 C 29.67452 25.507159 29.320004 21.727608 26.802734 19.203125 C 25.332142 17.728317 23.409372 16.997066 21.490234 17 z M 21.28125 18.988281 C 22.188246 18.945588 23.127637 19.139691 24.015625 19.613281 C 24.109895 19.662101 24.201011 19.718776 24.292969 19.773438 C 24.344037 19.804566 24.396627 19.830166 24.447266 19.863281 C 24.779144 20.075516 25.094078 20.324544 25.384766 20.615234 C 26.889661 22.120144 27.340127 24.262924 26.742188 26.152344 C 26.741616 26.154312 26.740808 26.156235 26.740234 26.158203 C 26.491984 27.009444 26.043499 27.793412 25.400391 28.408203 C 25.128316 28.668298 24.83339 28.895564 24.521484 29.091797 C 24.506291 29.101857 24.489878 29.109248 24.474609 29.119141 C 23.104571 30.006789 21.433944 30.222882 19.917969 29.765625 C 19.898183 29.760005 19.879097 29.751941 19.859375 29.746094 C 19.03299 29.501096 18.261499 29.059029 17.630859 28.408203 C 17.57207 28.347532 17.522066 28.282973 17.466797 28.220703 C 15.468636 26.058549 15.51407 22.716418 17.615234 20.615234 C 18.111114 20.119351 18.678707 19.744134 19.28125 19.476562 C 19.561603 19.352066 19.849254 19.252801 20.142578 19.177734 C 20.512947 19.07852 20.892051 19.006601 21.28125 18.988281 z M 18.386719 21 C 18.317734 21.061588 18.240153 21.107502 18.173828 21.173828 C 17.917922 21.429736 17.7049 21.708683 17.519531 22 L 20 22 L 20 21 L 18.386719 21 z M 21 21 L 21 22 L 23 22 L 23 21 L 21 21 z M 24 21 L 24 22 L 25.480469 22 C 25.2951 21.708683 25.082078 21.429736 24.826172 21.173828 C 24.760108 21.107763 24.683939 21.061364 24.615234 21 L 24 21 z M 17.050781 23 C 17.031735 23.055617 17.016875 23.111846 17 23.167969 L 17 24 L 18 24 L 18 23 L 17.050781 23 z M 19 23 L 19 24 L 21 24 L 21 23 L 19 23 z M 22 23 L 22 24 L 25 24 L 25 23 L 22 23 z M 26 23.167969 L 26 24 L 26.169922 24 C 26.13929 23.718208 26.082393 23.441991 26 23.167969 z M 17 25 L 17 25.832031 C 17.016875 25.888154 17.031735 25.944383 17.050781 26 L 19 26 L 19 25 L 17 25 z M 20 25 L 20 26 L 22 26 L 22 25 L 20 25 z M 23 25 L 23 26 L 25.949219 26 C 25.968265 25.944383 25.983125 25.888154 26 25.832031 L 26 25 L 23 25 z M 19 27 L 19 28 L 22 28 L 22 27 L 19 27 z M 23 27 L 23 28 L 24.615234 28 C 24.683938 27.938636 24.760108 27.892237 24.826172 27.826172 C 24.892236 27.760107 24.938637 27.683939 25 27.615234 L 25 27 L 23 27 z "
       transform="matrix(14.712771,0,0,14.670731,-202.78145,-237.55503)"
       id="path12423" />
  </g>
  <g
     transform="matrix(0.07682928,0,0,0.07682998,64.049843,16.657329)"
     id="g13-6"
     style="fill:#f9f9f9;stroke:#af5b63;stroke-width:10.28421497;stroke-miterlimit:4;stroke-dasharray:none;stroke-opacity:1">
    <title
       id="title15-8">Layer 1</title>
  </g>
</svg>

<svg xmlns="http://www.w3.org/2000/svg" viewBox="0 0 48 48">
 <defs>
  
 </defs>
 <path d="m 8 1 c -1.029 0 -2 0.971 -2 2 l 0 42 c 0 0.971 1.029 2 2 2 l 32 0 c 0.971 0 2 -1.029 2 -2 l 0 -31 -13 -13 z" style="fill:#af5b63;fill-opacity:1"/>
 <path d="m 29 12 0.063 0.063 0.156 -0.063 -0.219 0 z m 2 2 11 11 0 -11 -11 0 z" style="fill-opacity:0.196"/>
 <path d="m 29 1 13 13 -11 0 c -0.971 0 -2 -1.029 -2 -2 l 0 -11 z" style="fill:#fff;fill-opacity:0.392"/>
 <g transform="matrix(0.06796816,0,0,0.06816293,13.782682,16.192447)" style="fill:#f9f9f9;stroke:none">
  <path d="m 21.49 17 c -1.919 0.003 -3.834 0.74 -5.293 2.203 c -2.927 2.936 -2.933 7.646 0.008 10.596 c 2.492 2.499 6.247 2.864 9.15 1.127 l 4.633 4.607 c 0.714 0.695 1.905 0.562 2.523 -0.057 c 0.657 -0.689 0.662 -1.872 -0.051 -2.566 l -4.578 -4.482 c 1.792 -2.921 1.437 -6.7 -1.08 -9.225 c -1.471 -1.475 -3.393 -2.206 -5.313 -2.203 z m -0.209 1.988 c 0.907 -0.043 1.846 0.151 2.734 0.625 c 0.094 0.049 0.185 0.105 0.277 0.16 c 0.051 0.031 0.104 0.057 0.154 0.09 c 0.332 0.212 0.647 0.461 0.938 0.752 c 1.505 1.505 1.955 3.648 1.357 5.537 c -0.001 0.002 -0.001 0.004 -0.002 0.006 c -0.248 0.851 -0.697 1.635 -1.34 2.25 c -0.272 0.26 -0.567 0.487 -0.879 0.684 c -0.015 0.01 -0.032 0.017 -0.047 0.027 c -1.37 0.888 -3.041 1.104 -4.557 0.646 c -0.02 -0.006 -0.039 -0.014 -0.059 -0.02 c -0.826 -0.245 -1.598 -0.687 -2.229 -1.338 c -0.059 -0.061 -0.109 -0.125 -0.164 -0.188 c -1.998 -2.162 -1.953 -5.504 0.148 -7.605 c 0.496 -0.496 1.063 -0.871 1.666 -1.139 c 0.28 -0.124 0.568 -0.224 0.861 -0.299 c 0.37 -0.099 0.749 -0.171 1.139 -0.189 z m -2.895 2.01 c -0.069 0.062 -0.147 0.108 -0.213 0.174 c -0.256 0.256 -0.469 0.535 -0.654 0.826 l 2.48 0 l 0 -1 l -1.613 0 z m 2.613 0 l 0 1 l 2 0 l 0 -1 l -2 0 z m 3 0 l 0 1 l 1.48 0 c -0.185 -0.291 -0.398 -0.57 -0.654 -0.826 c -0.066 -0.066 -0.142 -0.112 -0.211 -0.174 l -0.615 0 z m -6.949 2 c -0.019 0.056 -0.034 0.112 -0.051 0.168 l 0 0.832 l 1 0 l 0 -1 l -0.949 0 z m 1.949 0 l 0 1 l 2 0 l 0 -1 l -2 0 z m 3 0 l 0 1 l 3 0 l 0 -1 l -3 0 z m 4 0.168 l 0 0.832 l 0.17 0 c -0.031 -0.282 -0.088 -0.558 -0.17 -0.832 z m -9 1.832 l 0 0.832 c 0.017 0.056 0.032 0.112 0.051 0.168 l 1.949 0 l 0 -1 l -2 0 z m 3 0 l 0 1 l 2 0 l 0 -1 l -2 0 z m 3 0 l 0 1 l 2.949 0 c 0.019 -0.056 0.034 -0.112 0.051 -0.168 l 0 -0.832 l -3 0 z m -4 2 l 0 1 l 3 0 l 0 -1 l -3 0 z m 4 0 l 0 1 l 1.615 0 c 0.069 -0.061 0.145 -0.108 0.211 -0.174 c 0.066 -0.066 0.112 -0.142 0.174 -0.211 l 0 -0.615 l -2 0 z" transform="matrix(14.712771,0,0,14.670731,-202.78145,-237.55503)" style="stroke-dasharray:none;stroke-opacity:1;stroke-miterlimit:4;stroke-width:10.284"/>
 </g>
</svg>
